X: 5
T: The Silver Spire
R: reel
M: 4/4
L: 1/8
K: Dmaj
|:"D" FE|D2FE DFAc|dcdf edAF| "G" GABG "D" FGAF| "A" GFED CEGC|
"D" D2FE DFAc|d2df edAF| "G" G2BG F2 "D" AF| "Em" E2CE "D" D2:|
|: "A" CD |E2CD EFGE|"G" GFEF GABc|"D" dcBA Bcde|"A" f2gf e2 (3ABc|
"D" d2fd "A" c2ec|"D" dcdA BAFD|"G" G2BG "D" F2AF|"Em" E2 CE "D" D2:|


Tune 240	Setting 240

